X:1
T:La misera farfalla
T:Bartolomeo Mutiis Conte di Cesana
T:Source : Musiche a uno, doi e tre voci---Venetia---Herede di Angelo Gardano---1613. Editor : André Vierendeels (04/11/16).
T:Notes : Original clefs : C1, F4 Editorial accidentals above the staff Figures in Bc are notated in original print "Canto o Tenore" Text by Pietro Petracci (Ghirlanda dell' Aurora) 
T:La misera farfalla
T:©
T:©
T:©
T:©
T:©
C:Bartolomeo Mutiis
C:Conte di Cesana
Z:©
%%score 1 2
L:1/8
Q:1/4=98
M:4/4
K:C
V:1 treble nm="Soprano" snm="S"
V:2 bass nm="MusicXML Part"
V:1
 A8 | _B6 cd | A4 F4 | G/F/E/D/ C/D/E/^F/ G A2 G | A8 | z4 E4 | F6 GA | E2 C2 DEDE | FGFG A4 | %9
w: La|mi- se- ra|far- fal-||la,|la|mi- se- ra|far- fal- * * * *||
 E4 z AGF | E2 F/D/E/F/ G4 | G4 z2 GF | E2 FG A2 AG | F2 GA _B>B A>G | F2 D2 D/E/F/E/ D/C/D/E/ | %15
w: la par, che si|pren- d'a _ _ _ gio-|co di vo-|lar, di scer- zar, di vo-|lar, di scer- zar di scer- *|zar in- torn' _ _ _ _ _ _ _|
 F/G/A/G/ F/E/F/G/ A/B/c/B/ A/G/A/B/ | ^c/d/e/d/ c/B/c/d/ e4- | e2 E2 E4 |[M:2/4] D4 :: d2 cB | %20
w: _ _ _ _ _ _ _ _ _ _ _ _ _ _ _ _||* al fo-|co,|e tan- te|
[M:4/4] A2 B2 ccBA | G2 A2 _BBAG | F2 G2 A_B/A/ GA/G/ | FG/F/ EF/E/ DE/D/ C/D/E/F/ | G3 A/_B/ G4 | %25
w: vol- te scher- z'e tan- te|vol- te scher- z'e tan- te|vol- te scher- * * * * *|||
 F2 FG A2 GF | EEEF G4 | E2 AB c2 BA | GGGA _B4 | A4 DEDE | FGFG ABAB | cdcd e4- | e2 d2 d4- | %33
w: za, che se fug- ge la|pri- m'ar- de la ter-|za, che se fug- ge la|pri- m'ar- de la ter-|za, ar- * * *|||* de la|
 d2 ^cB c4 | d8 :: z2 A2 A2 B2 | c4- c_BAG | F2- F/E/D/E/ F/G/A/B/ c2- | c2 A2 G4 | F4 A4 | %40
w: _ ter- * *|ra,|anch' io nel|fo _ co d'un lu-|cen- * * * * * * * * *|* te sguar-|do vo-|
 GA/_B/ BB/c/ Ac/d/ cd/_e/ | d6 d2 | A>B c>B G>A _B>A | F>G A>G E>F E>F | G>G F>E D4 | %45
w: lai- * * * * * * * * * * *|* scher-|zan- * * * * * * *|||
 D2 D2 F2 G2 | A6 E2 | F>E F/E/F/G/ E4 | D8 :| %49
w: do hor da do-|ver o|n'ar- * * * * * *|do.-|
V:2
"^BC" D,8 | G,,8 | D,8 | C,4 _B,,4 | A,,8 | A,,8 | D,8 | C,2 A,,2 _B,,4 | _B,,4 A,,4- | A,,4 A,,4 | %10
 A,,4 G,,4 | C,4 C,3 B,, | A,,3 G,, F,,2 G,,A,, | _B,,3 A,, G,,2 A,,2 | _B,,4 B,,4 | _B,,4 A,,4 | %16
"^#" A,,8 |"^#" A,,8 |[M:2/4] D,4 :: D,4 |[M:4/4] D,4 A,,4 |"^b" C,4 G,,4 | _B,,4 A,,2 E,2 | %23
 D,2 C,2 _B,,2 A,,2 | G,,4 C,4 | F,,8 | C,8 | A,,4 A,,4 |"^b" C,4 G,,4 | A,,4 _B,,4 | D,4 D,4 | %31
 A,,8 | _B,,8 |"^#" A,,8 | D,8 :: F,4 F,2 D,2 | C,2 A,,2 A,,4 | D,4 D,2 A,,2 | C,8 | F,,8 | %40
 G,,4 G,,4 | G,,8 |"^b" D,2 A,,2 C,2 G,,2 | _B,,2 F,,2 A,,4 | G,,4 G,,4 | D,4 D,2 _B,,2 | %46
"^#" A,,8 |"^#" A,,8 | D,8 :| %49

